X: 7
T: The Piper's Despair
R: reel
M: 4/4
L: 1/8
K: Edor
EFGA BAFA|d2 AB dBAF|D2 DF ADFA|d2 AB dBAF|
EFGA BAFA|d2 AB dBAF|DEFA dfaf|gfed Be e2:||
e2(3gfe begf|efga bfaf|d ~f3 a ~f3|defd edBd|
e2(3gfe begf|efga bfaf|dcdf a2 af|gfed Be e2:||


Tune 336	Setting 27477

